X: 435
T: Simple Gifts
C: Traditional
M: 4/4
L: 1/4
Q: 1/4=90
K: F
z3/4 C/2C/2 | F (2F/2G/2 (4A/2F/2A/2B/2 | c c/2B/2 A G/2F/2 | G G G F | (4G/2A/2G/2E/2 C C |
w: 'Tis the gift to be sim-ple, tis the gift to be free. 'Tis the gift to come down where we ought to be. And 
(4F/2E/2F/2G/2 A G/2G/2 | A B c A | G G/2G/2 A A/2G/2 | F F/2F/2 F2 |
w: when we find our-selves in the place just right, 'twill be in the val-ley of love and de-light.
